X:275
T:Aiken Drum
M:4/4
L:1/8
K:G
GA|B2B2A2G2|E4G4|D2D2 DEFG|B2A2A2 GA|B2B2A2G2|E4G4|D2D2E2F2|G6||GA|B2B2
BAGA|B2e2e4|d2B2 BAGA|B2A2A2GA|B2B2A2G2|E4G4|D2D2E2F2|G6||


